X:54
T:Ty a Gardd
M:6/8
L:1/8
Q:120
C:Trad. arr. Ceri Rhys Matthews
R:Jig
N:Tune is originally Danish
K:D
F2 D DCD | F2 D DCD | E3 EDE | F2 E FED |
F2 D DCD | F2 D DCD | E3 EDE | F2 E D3 :||: D2 d dcB|
| A3 AGF | E3 EDE | F2 E FED | D2 d dcB | A3 AGF | E3 EDE|
| F2 E D3 :||
